resources/svg/car-washing-line.svg

<svg fill="currentColor" viewBox="0 0 24 24" xmlns="http://www.w3.org/2000/svg"><path d="M19 21.0002H5V22.0002C5 22.5525 4.55228 23.0002 4 23.0002H3C2.44772 23.0002 2 22.5525 2 22.0002V12.0002L4.4174 7.97123C4.77884 7.36882 5.42986 7.00023 6.13238 7.00023H17.8676C18.5701 7.00023 19.2212 7.36882 19.5826 7.97123L22 12.0002V22.0002C22 22.5525 21.5523 23.0002 21 23.0002H20C19.4477 23.0002 19 22.5525 19 22.0002V21.0002ZM20 14.0002H4V19.0002H20V14.0002ZM4.33238 12.0002H19.6676L17.8676 9.00023H6.13238L4.33238 12.0002ZM5.43934 3.43957L6.5 2.37891L7.56066 3.43957C7.83211 3.71101 8 4.08601 8 4.50023C8 5.32865 7.32843 6.00023 6.5 6.00023C5.67157 6.00023 5 5.32865 5 4.50023C5 4.08601 5.16789 3.71101 5.43934 3.43957ZM10.9393 3.43957L12 2.37891L13.0607 3.43957C13.3321 3.71101 13.5 4.08601 13.5 4.50023C13.5 5.32865 12.8284 6.00023 12 6.00023C11.1716 6.00023 10.5 5.32865 10.5 4.50023C10.5 4.08601 10.6679 3.71101 10.9393 3.43957ZM16.4393 3.43957L17.5 2.37891L18.5607 3.43957C18.8321 3.71101 19 4.08601 19 4.50023C19 5.32865 18.3284 6.00023 17.5 6.00023C16.6716 6.00023 16 5.32865 16 4.50023C16 4.08601 16.1679 3.71101 16.4393 3.43957ZM6.5 18.0002C5.67157 18.0002 5 17.3287 5 16.5002C5 15.6718 5.67157 15.0002 6.5 15.0002C7.32843 15.0002 8 15.6718 8 16.5002C8 17.3287 7.32843 18.0002 6.5 18.0002ZM17.5 18.0002C16.6716 18.0002 16 17.3287 16 16.5002C16 15.6718 16.6716 15.0002 17.5 15.0002C18.3284 15.0002 19 15.6718 19 16.5002C19 17.3287 18.3284 18.0002 17.5 18.0002Z"/></svg>

<svg xmlns="http://www.w3.org/2000/svg" viewBox="0 0 24 24" fill="currentColor">
    <g>
        <path fill="none" d="M0 0h24v24H0z"/>
        <path d="M19 21H5v1a1 1 0 0 1-1 1H3a1 1 0 0 1-1-1V12l2.417-4.029A2 2 0 0 1 6.132 7h11.736a2 2 0 0 1 1.715.971L22 12v10a1 1 0 0 1-1 1h-1a1 1 0 0 1-1-1v-1zm1-7H4v5h16v-5zM4.332 12h15.336l-1.8-3H6.132l-1.8 3zM5.44 3.44L6.5 2.378l1.06 1.06a1.5 1.5 0 1 1-2.121 0zm5.5 0L12 2.378l1.06 1.06a1.5 1.5 0 1 1-2.121 0zm5.5 0L17.5 2.378l1.06 1.06a1.5 1.5 0 1 1-2.121 0zM6.5 18a1.5 1.5 0 1 1 0-3 1.5 1.5 0 0 1 0 3zm11 0a1.5 1.5 0 1 1 0-3 1.5 1.5 0 0 1 0 3z"/>
    </g>
</svg>
